X:1
T:Partition sans titre
C:Compositeur / Arrangeur
L:1/8
M:4/4
I:linebreak $
K:C
V:1 treble nm="Violon" snm="Vln."
V:1
"Am" E<AA>B Pc>AB<G |"G" D<GG>A B>PdB<G |"Am" E<AA>B Pc>Bc<e |"G" d<Bg>B"Am" A2 PA2 | %4
"Am" A<aPa>g e>dc<e |"G" d<eg>e d>BG<B |"Am" A<aPa>g e>dc<e |"G" d<Bg>B"Am" A2 PA2 | %8
"Am" A<aPa>g e>dc<e |"G" d<eg>e d/c/B/A/G<B |"Am" c<Ad>B e>dc<e |"G" d<Bg>B"Am" A2 PA2 |] %12
